images/logo2.svg

<svg width="48" height="60" viewBox="0 0 48 60" fill="none" xmlns="http://www.w3.org/2000/svg">
<g filter="url(#filter0_d)">
<path d="M20.9769 2.93452H21.1135C21.3665 2.93452 21.6397 2.95995 21.9104 2.98284C23.103 3.06695 24.2873 3.24551 25.452 3.51685V0.653528C24.2527 0.352628 23.0296 0.157776 21.7965 0.0712015C21.3285 0.0356008 20.8302 0.0127146 20.3192 0H19.8917C17.4168 0.00930695 14.9526 0.327052 12.5554 0.945963C9.82521 1.62687 7.20457 2.69275 4.77148 4.11189V32.5086C7.11421 31.2357 9.60704 30.2643 12.1912 29.6173C14.2315 29.0967 16.3174 28.7765 18.4193 28.6612H18.5028C18.8545 28.6434 19.2061 28.6332 19.5678 28.6306V25.7216C16.8366 25.7567 14.1192 26.1178 11.4727 26.7972C10.4937 27.0515 9.54761 27.3261 8.65967 27.6313L7.64778 27.9746V5.83344L8.08036 5.62492C11.3816 4.05951 14.9521 3.14863 18.5964 2.94215C18.6267 2.93994 18.6572 2.93994 18.6875 2.94215C19.0897 2.92181 19.4945 2.91163 19.8917 2.91163H20.3268H20.347C20.557 2.91672 20.7669 2.92181 20.9769 2.93452Z" fill="#AFB1B8"/>
<path d="M28.111 5.93259C27.4457 5.93259 26.788 5.9097 26.153 5.86138C25.3941 5.80544 24.6149 5.7139 23.8763 5.58929C23.426 5.51301 22.9833 5.42146 22.5532 5.32229V33.3935C24.3739 33.8443 26.2435 34.0647 28.1186 34.0496C30.5933 34.0395 33.0573 33.7227 35.4548 33.1061C38.1856 32.4243 40.8069 31.3585 43.2413 29.9402V2.04956C40.8989 3.32178 38.4071 4.29396 35.8242 4.94339C33.3034 5.59083 30.7128 5.92307 28.111 5.93259ZM39.3354 6.41828L40.3473 6.07753V28.2263L39.9147 28.4348C38.2554 29.2243 36.5226 29.8469 34.7414 30.2937C32.5784 30.8533 30.3547 31.1412 28.1211 31.1506C27.4533 31.1506 26.7905 31.1227 26.148 31.0667L25.4548 31.0057V28.3178V8.22883L26.2618 8.28224C26.8487 8.32038 27.4558 8.33818 28.1161 8.33818C30.9517 8.3281 33.7751 7.96596 36.5224 7.25998C37.4659 7.01078 38.4045 6.73106 39.3354 6.41828Z" fill="#AFB1B8"/>
<path d="M6.73726 42.2124C6.59178 42.0615 6.41641 41.943 6.22248 41.8646C6.02856 41.7862 5.82042 41.7496 5.61153 41.7572C5.38892 41.7542 5.16793 41.7957 4.96139 41.8793C4.77202 41.9547 4.59989 42.068 4.45544 42.2124C4.31257 42.3572 4.20141 42.5304 4.12911 42.721C4.0498 42.9207 4.01026 43.1341 4.01274 43.3491V47.1431C4.00369 47.4104 4.05471 47.6764 4.162 47.9212C4.25155 48.1156 4.38085 48.2889 4.54145 48.4298C4.69308 48.5575 4.8711 48.6495 5.06258 48.6994C5.24706 48.7512 5.43768 48.7777 5.62924 48.7782C5.84053 48.7803 6.04965 48.7351 6.24143 48.646C6.43107 48.563 6.60289 48.4438 6.74737 48.295C6.88826 48.1476 7.00064 47.9752 7.07877 47.7864C7.15985 47.5951 7.20117 47.3892 7.2002 47.1812V46.7566H6.20854V47.0948C6.21149 47.2103 6.19172 47.3252 6.15036 47.433C6.11807 47.5137 6.06889 47.5866 6.00617 47.6466C5.94474 47.6962 5.87428 47.7334 5.79873 47.7559C5.73176 47.7782 5.66182 47.7902 5.59129 47.7915C5.50275 47.8018 5.41308 47.7885 5.33134 47.7527C5.24961 47.717 5.17871 47.6602 5.12582 47.5881C5.03234 47.4356 4.98652 47.2585 4.99428 47.0795V43.5423C4.98812 43.3462 5.02981 43.1515 5.1157 42.9753C5.16718 42.8952 5.24002 42.8313 5.3259 42.7908C5.41178 42.7503 5.50725 42.7349 5.60141 42.7464C5.68689 42.7434 5.77182 42.7612 5.84893 42.7984C5.92603 42.8356 5.99301 42.8911 6.04411 42.96C6.15508 43.1057 6.2131 43.2852 6.20854 43.4686V43.7966H7.19008V43.4101C7.19207 43.1831 7.15085 42.9578 7.06865 42.7464C6.99539 42.5476 6.88264 42.3659 6.73726 42.2124Z" fill="#AFB1B8"/>
<path d="M12.6287 42.1691C12.3125 41.9021 11.9134 41.7546 11.5004 41.7521C11.2984 41.7529 11.0981 41.7891 10.9085 41.8589C10.7159 41.9279 10.5382 42.0332 10.3848 42.1691C10.2205 42.3168 10.0894 42.498 10.0003 42.7006C9.90039 42.9323 9.85121 43.183 9.8561 43.4355V47.0744C9.84926 47.3304 9.89848 47.5847 10.0003 47.8195C10.09 48.0151 10.2213 48.1887 10.3848 48.328C10.5364 48.4688 10.7144 48.5777 10.9085 48.6485C11.0981 48.7183 11.2984 48.7544 11.5004 48.7553C11.7024 48.7549 11.9028 48.7187 12.0924 48.6485C12.2897 48.5767 12.4717 48.468 12.6287 48.328C12.7869 48.1861 12.9143 48.013 13.0031 47.8195C13.1049 47.5847 13.1541 47.3304 13.1473 47.0744V43.4355C13.1521 43.183 13.103 42.9323 13.0031 42.7006C12.9148 42.5001 12.7875 42.3194 12.6287 42.1691ZM12.1657 47.0744C12.1741 47.1714 12.1607 47.269 12.1266 47.3601C12.0924 47.4512 12.0384 47.5334 11.9684 47.6008C11.8374 47.7106 11.6723 47.7708 11.5017 47.7708C11.3311 47.7708 11.1659 47.7106 11.0349 47.6008C10.965 47.5334 10.911 47.4512 10.8768 47.3601C10.8427 47.269 10.8293 47.1714 10.8376 47.0744V43.4355C10.8293 43.3385 10.8427 43.2409 10.8768 43.1498C10.911 43.0587 10.965 42.9764 11.0349 42.9091C11.1659 42.7993 11.3311 42.7391 11.5017 42.7391C11.6723 42.7391 11.8374 42.7993 11.9684 42.9091C12.0384 42.9764 12.0924 43.0587 12.1266 43.1498C12.1607 43.2409 12.1741 43.3385 12.1657 43.4355V47.0744Z" fill="#AFB1B8"/>
<path d="M20.3675 48.6994V41.8107H19.4138L18.1616 45.4572H18.1439L16.8816 41.8107H15.938V48.6994H16.9221V44.5087H16.9398L17.9036 47.4712H18.3944L19.3658 44.5087H19.3835V48.6994H20.3675Z" fill="#AFB1B8"/>
<path d="M25.9582 42.2937C25.8067 42.1237 25.6154 41.9943 25.4016 41.9173C25.1713 41.8424 24.9303 41.8063 24.6883 41.8105H23.2261V48.6993H24.2076V46.0089H24.7136C25.0198 46.0228 25.3245 45.958 25.599 45.8207C25.8221 45.6968 26.0082 45.515 26.1378 45.2943C26.2513 45.1111 26.3278 44.9071 26.3629 44.6942C26.4016 44.435 26.4193 44.173 26.4161 43.911C26.4256 43.5802 26.3933 43.2495 26.3199 42.9269C26.2545 42.6885 26.13 42.4706 25.9582 42.2937ZM25.4522 44.3941C25.448 44.5188 25.4169 44.6412 25.3612 44.7527C25.3051 44.8586 25.2163 44.9434 25.1082 44.9942C24.9628 45.0593 24.8042 45.0889 24.6453 45.0807H24.1975V42.7387H24.7034C24.8558 42.7312 25.0077 42.7609 25.1461 42.8251C25.2476 42.8834 25.3282 42.9724 25.3763 43.0794C25.43 43.2004 25.4592 43.331 25.4624 43.4634C25.4624 43.6084 25.4624 43.7609 25.4624 43.9211C25.4624 44.0813 25.4725 44.2466 25.4624 44.3941H25.4522Z" fill="#AFB1B8"/>
<path d="M30.6074 41.8107H29.803L28.2852 48.6994H29.2667L29.5551 47.2194H30.8933L31.1817 48.6994H32.1632L30.6074 41.8107ZM29.7018 46.2811L30.185 43.784H30.2027L30.6833 46.2811H29.7018Z" fill="#AFB1B8"/>
<path d="M36.9496 45.9607H36.9319L35.4494 41.8107H34.5059V48.6994H35.4874V44.557H35.5076L37.0078 48.6994H37.9311V41.8107H36.9496V45.9607Z" fill="#AFB1B8"/>
<path d="M42.9476 41.8107L42.1583 44.5494H42.1381L41.3488 41.8107H40.3091L41.6574 45.7878V48.6994H42.639V45.7878L43.9873 41.8107H42.9476Z" fill="#AFB1B8"/>
<path d="M4 50.6445H4.47306V51.9719H4.79433V50.6445H5.26486V50.3724H4V50.6445Z" fill="#AFB1B8"/>
<path d="M7.97672 50.3724L7.35693 51.9719H7.69845L7.82999 51.6083H8.46748L8.60409 51.9719H8.95319L8.31823 50.3724H7.97672ZM7.92612 51.3387L8.14368 50.7462L8.36123 51.3387H7.92612Z" fill="#AFB1B8"/>
<path d="M11.9079 51.3821H12.2773V51.5881C12.1694 51.6746 12.0358 51.722 11.8978 51.7229C11.8333 51.7265 11.7689 51.7145 11.7099 51.688C11.6509 51.6614 11.5991 51.6211 11.5588 51.5703C11.474 51.4485 11.4322 51.3017 11.4399 51.1533C11.4399 50.7973 11.5942 50.6193 11.9003 50.6193C11.9809 50.6112 12.0617 50.6325 12.128 50.6791C12.1944 50.7257 12.2419 50.7947 12.2621 50.8735L12.5783 50.8125C12.51 50.4997 12.2849 50.3421 11.9003 50.3421C11.6947 50.3366 11.4947 50.4103 11.3413 50.5481C11.2607 50.6276 11.1983 50.7239 11.1586 50.8302C11.1188 50.9365 11.1026 51.0502 11.1111 51.1634C11.1017 51.3823 11.1749 51.5966 11.316 51.7636C11.3943 51.8444 11.4892 51.9071 11.594 51.9475C11.6988 51.9879 11.8111 52.0049 11.9231 51.9975C12.1734 52.0045 12.4165 51.9133 12.6011 51.7432V51.1126H11.9079V51.3821Z" fill="#AFB1B8"/>
<path d="M15.9224 50.3724H15.5986V51.9719H16.7193V51.6998H15.9224V50.3724Z" fill="#AFB1B8"/>
<path d="M19.3175 50.3724H18.9937V51.9719H19.3175V50.3724Z" fill="#AFB1B8"/>
<path d="M22.6364 51.4405L21.9812 50.3724H21.6675V51.9719H21.9685V50.9268L22.6111 51.9719H22.9323V50.3724H22.6364V51.4405Z" fill="#AFB1B8"/>
<path d="M25.6368 51.2675H26.4337V50.9954H25.6368V50.6445H26.4944V50.3724H25.313V51.9719H26.5273V51.6998H25.6368V51.2675Z" fill="#AFB1B8"/>
<path d="M32.9121 51.0031H32.2822V50.3724H31.9609V51.9719H32.2822V51.2726H32.9121V51.9719H33.2334V50.3724H32.9121V51.0031Z" fill="#AFB1B8"/>
<path d="M35.9302 51.2675H36.7296V50.9954H35.9302V50.6445H36.7903V50.3724H35.6089V51.9719H36.8206V51.6998H35.9302V51.2675Z" fill="#AFB1B8"/>
<path d="M40.0235 51.2676C40.3018 51.2244 40.4434 51.0769 40.4434 50.8226C40.4515 50.7546 40.4412 50.6856 40.4136 50.623C40.386 50.5603 40.3421 50.5063 40.2866 50.4666C40.1417 50.3938 39.9801 50.3614 39.8186 50.3725H39.1406V51.972H39.4619V51.3032H39.5251C39.5936 51.299 39.6621 51.3112 39.725 51.3388C39.772 51.3678 39.8111 51.4079 39.8388 51.4558L40.1879 51.9644H40.5724L40.3777 51.6516C40.2916 51.4972 40.1702 51.3656 40.0235 51.2676ZM39.6997 51.0464H39.4619V50.6446H39.7149C39.8251 50.6357 39.936 50.6486 40.0412 50.6827C40.0646 50.7034 40.0831 50.7291 40.0952 50.7579C40.1074 50.7867 40.113 50.8179 40.1115 50.8492C40.11 50.8804 40.1016 50.911 40.0868 50.9385C40.072 50.966 40.0512 50.9899 40.026 51.0082C39.9204 51.0406 39.8099 51.0535 39.6997 51.0464Z" fill="#AFB1B8"/>
<path d="M43.1094 51.2675H43.9063V50.9954H43.1094V50.6445H43.9696V50.3724H42.7856V51.9719H43.9999V51.6998H43.1094V51.2675Z" fill="#AFB1B8"/>
</g>
<defs>
<filter id="filter0_d" x="0" y="0" width="48" height="60" filterUnits="userSpaceOnUse" color-interpolation-filters="sRGB">
<feFlood flood-opacity="0" result="BackgroundImageFix"/>
<feColorMatrix in="SourceAlpha" type="matrix" values="0 0 0 0 0 0 0 0 0 0 0 0 0 0 0 0 0 0 127 0"/>
<feOffset dy="4"/>
<feGaussianBlur stdDeviation="2"/>
<feColorMatrix type="matrix" values="0 0 0 0 0 0 0 0 0 0 0 0 0 0 0 0 0 0 0.25 0"/>
<feBlend mode="normal" in2="BackgroundImageFix" result="effect1_dropShadow"/>
<feBlend mode="normal" in="SourceGraphic" in2="effect1_dropShadow" result="shape"/>
</filter>
</defs>
</svg>

<svg width="48" height="60" fill="none" xmlns="http://www.w3.org/2000/svg"><g filter="url(#filter0_d)" fill="#AFB1B8"><path d="M20.977 2.935h.136c.253 0 .527.025.797.048 1.193.084 2.377.263 3.542.534V.654A21.09 21.09 0 0021.797.07 29.24 29.24 0 0020.319 0h-.427c-2.475.01-4.94.327-7.337.946-2.73.68-5.35 1.747-7.784 3.166v28.397a31.634 31.634 0 017.42-2.892 32.36 32.36 0 016.228-.956h.084c.352-.018.703-.028 1.065-.03v-2.91a34.329 34.329 0 00-8.095 1.076c-.98.255-1.925.53-2.813.834l-1.012.344V5.833l.432-.208a28.275 28.275 0 0110.516-2.683.627.627 0 01.091 0c.403-.02.807-.03 1.205-.03h.455c.21.005.42.01.63.023z"/><path d="M28.111 5.933a25.915 25.915 0 01-4.235-.344c-.45-.076-.893-.168-1.323-.267v28.072c1.82.45 3.69.67 5.566.656a29.943 29.943 0 007.336-.944 29.814 29.814 0 007.786-3.166V2.05a31.774 31.774 0 01-7.417 2.893c-2.52.648-5.111.98-7.713.99zm11.224.485l1.012-.34v22.148l-.432.209a27.761 27.761 0 01-5.174 1.859c-2.163.56-4.386.847-6.62.857-.668 0-1.33-.028-1.973-.084l-.693-.061V8.228l.807.054c.587.038 1.194.056 1.854.056a34.263 34.263 0 008.406-1.078 44.55 44.55 0 002.813-.842zM6.737 42.212a1.492 1.492 0 00-1.125-.455 1.673 1.673 0 00-.65.122 1.463 1.463 0 00-.832.842c-.08.2-.12.413-.117.628v3.794c-.01.267.042.533.149.778.09.195.219.368.38.509.151.127.33.22.52.27.185.051.376.078.567.078.212.002.42-.043.612-.132a1.599 1.599 0 00.96-1.465v-.424h-.992v.338a.881.881 0 01-.059.338.608.608 0 01-.144.214.697.697 0 01-.415.145.503.503 0 01-.465-.204.899.899 0 01-.132-.508v-3.538c-.006-.196.036-.39.122-.567a.507.507 0 01.485-.229.527.527 0 01.443.214.806.806 0 01.165.509v.328h.981v-.387a1.788 1.788 0 00-.121-.664 1.562 1.562 0 00-.332-.534zM12.629 42.17a1.765 1.765 0 00-1.129-.418c-.202 0-.402.037-.591.107A1.558 1.558 0 0010 42.7c-.1.231-.15.482-.145.735v3.638c-.007.256.042.51.144.745.09.196.221.37.385.509.151.14.33.25.524.32.19.07.39.106.591.107a1.715 1.715 0 001.129-.427c.158-.142.285-.315.374-.509.102-.234.151-.489.144-.745v-3.639a1.771 1.771 0 00-.144-.734 1.644 1.644 0 00-.374-.532zm-.463 4.904a.654.654 0 01-.198.527.726.726 0 01-.933 0 .653.653 0 01-.197-.527v-3.639a.656.656 0 01.197-.526.727.727 0 01.933 0 .651.651 0 01.198.526v3.64zM20.367 48.7v-6.89h-.953l-1.252 3.647h-.018l-1.262-3.646h-.944v6.888h.984v-4.19h.018l.964 2.962h.49l.972-2.962h.018v4.19h.983zM25.958 42.294c-.151-.17-.343-.3-.556-.377a2.184 2.184 0 00-.714-.107h-1.462v6.89h.982v-2.691h.506c.306.014.61-.051.885-.188a1.43 1.43 0 00.539-.527c.113-.183.19-.387.225-.6a4.9 4.9 0 00.053-.783c.01-.33-.023-.662-.096-.984a1.465 1.465 0 00-.362-.633zm-.506 2.1a.868.868 0 01-.09.359.552.552 0 01-.254.241 1.006 1.006 0 01-.463.087h-.447v-2.342h.505a.942.942 0 01.443.086.556.556 0 01.23.254c.054.121.083.252.086.384v.458c0 .16.01.326 0 .473h-.01zM30.607 41.81h-.804l-1.518 6.89h.982l.288-1.48h1.338l.289 1.48h.981l-1.556-6.89zm-.905 4.471l.483-2.497h.018l.48 2.497h-.981zM36.95 45.96h-.018l-1.483-4.15h-.943v6.89h.981v-4.143h.02l1.5 4.142h.924v-6.888h-.981v4.15zM42.948 41.81l-.79 2.74h-.02l-.79-2.74H40.31l1.348 3.978v2.911h.982v-2.911l1.348-3.977h-1.04zM4 50.645h.473v1.327h.321v-1.328h.47v-.272H4v.273zM7.977 50.372l-.62 1.6h.341l.132-.364h.637l.137.364h.35l-.636-1.6h-.341zm-.05.967l.217-.593.217.593h-.435zM11.908 51.382h.37v.206a.613.613 0 01-.38.135.404.404 0 01-.34-.153.67.67 0 01-.118-.417c0-.356.154-.534.46-.534a.337.337 0 01.362.255l.316-.062c-.068-.312-.293-.47-.678-.47a.804.804 0 00-.559.206.78.78 0 00-.23.615.872.872 0 00.205.6.776.776 0 00.607.235.96.96 0 00.678-.255v-.63h-.693v.27zM15.922 50.372H15.6v1.6h1.12V51.7h-.797v-1.328zM19.317 50.372h-.323v1.6h.323v-1.6zM22.636 51.44l-.655-1.068h-.314v1.6h.301v-1.045l.643 1.045h.321v-1.6h-.296v1.069zM25.637 51.267h.797v-.272h-.797v-.35h.857v-.273h-1.181v1.6h1.214V51.7h-.89v-.433zM32.912 51.003h-.63v-.63h-.321v1.599h.321v-.7h.63v.7h.321v-1.6h-.32v.631zM35.93 51.267h.8v-.272h-.8v-.35h.86v-.273H35.61v1.6h1.212V51.7h-.89v-.433zM40.023 51.268c.279-.044.42-.191.42-.445a.383.383 0 00-.156-.356.904.904 0 00-.468-.094h-.678v1.599h.32v-.669h.064a.432.432 0 01.2.036c.047.029.086.069.114.117l.349.508h.384l-.194-.312a1.114 1.114 0 00-.355-.384zm-.323-.222h-.238v-.401h.253a.84.84 0 01.326.038.208.208 0 01.046.255.208.208 0 01-.061.07.912.912 0 01-.326.038zM43.11 51.267h.796v-.272h-.797v-.35h.86v-.273h-1.183v1.6H44V51.7h-.89v-.433z"/></g><defs><filter id="filter0_d" x="0" y="0" width="48" height="60" filterUnits="userSpaceOnUse" color-interpolation-filters="sRGB"><feFlood flood-opacity="0" result="BackgroundImageFix"/><feColorMatrix in="SourceAlpha" values="0 0 0 0 0 0 0 0 0 0 0 0 0 0 0 0 0 0 127 0"/><feOffset dy="4"/><feGaussianBlur stdDeviation="2"/><feColorMatrix values="0 0 0 0 0 0 0 0 0 0 0 0 0 0 0 0 0 0 0.25 0"/><feBlend in2="BackgroundImageFix" result="effect1_dropShadow"/><feBlend in="SourceGraphic" in2="effect1_dropShadow" result="shape"/></filter></defs></svg>
